wwr/images/facebook.svg

<?xml version="1.0"?><!DOCTYPE svg  PUBLIC '-//W3C//DTD SVG 1.1//EN'  'http://www.w3.org/Graphics/SVG/1.1/DTD/svg11.dtd'><svg height="100%" style="fill-rule:evenodd;clip-rule:evenodd;stroke-linejoin:round;stroke-miterlimit:2;" version="1.1" viewBox="0 0 512 512" width="100%" xml:space="preserve" xmlns="http://www.w3.org/2000/svg" xmlns:serif="http://www.serif.com/" xmlns:xlink="http://www.w3.org/1999/xlink"><g><path d="M512,256c0,-141.385 -114.615,-256 -256,-256c-141.385,0 -256,114.615 -256,256c0,127.777 93.616,233.685 216,252.89l0,-178.89l-65,0l0,-74l65,0l0,-56.4c0,-64.16 38.219,-99.6 96.695,-99.6c28.009,0 57.305,5 57.305,5l0,63l-32.281,0c-31.801,0 -41.719,19.733 -41.719,39.978l0,48.022l71,0l-11.35,74l-59.65,0l0,178.89c122.385,-19.205 216,-125.113 216,-252.89Z" style="fill:#1877f2;fill-rule:nonzero;"/><path d="M355.65,330l11.35,-74l-71,0l0,-48.022c0,-20.245 9.917,-39.978 41.719,-39.978l32.281,0l0,-63c0,0 -29.297,-5 -57.305,-5c-58.476,0 -96.695,35.44 -96.695,99.6l0,56.4l-65,0l0,74l65,0l0,178.89c13.033,2.045 26.392,3.11 40,3.11c13.608,0 26.966,-1.065 40,-3.11l0,-178.89l59.65,0Z" style="fill:#fff;fill-rule:nonzero;"/></g></svg>

<svg xmlns="http://www.w3.org/2000/svg" xml:space="preserve" fill-rule="evenodd" stroke-linejoin="round" stroke-miterlimit="2" clip-rule="evenodd" viewBox="0 0 512 512"><g fill-rule="nonzero"><path fill="#1877f2" d="M512 256C512 114.615 397.385 0 256 0S0 114.615 0 256c0 127.777 93.616 233.685 216 252.89V330h-65v-74h65v-56.4c0-64.16 38.219-99.6 96.695-99.6 28.009 0 57.305 5 57.305 5v63h-32.281C305.918 168 296 187.733 296 207.978V256h71l-11.35 74H296v178.89C418.385 489.685 512 383.777 512 256"/><path fill="#fff" d="M355.65 330 367 256h-71v-48.022c0-20.245 9.917-39.978 41.719-39.978H370v-63s-29.297-5-57.305-5C254.219 100 216 135.44 216 199.6V256h-65v74h65v178.89a258 258 0 0 0 40 3.11c13.608 0 26.966-1.065 40-3.11V330z"/></g></svg>
